resources/icons/help-contents.svg

<svg xmlns="http://www.w3.org/2000/svg" viewBox="0 0 16 16">
  <defs id="defs3051">
    <style type="text/css" id="current-color-scheme">
      .ColorScheme-Text {
        color:#000;
      }
      </style>
  </defs>
 <path
     style="fill:currentColor;fill-opacity:1;stroke:none"
     d="M 8 2 A 6 6 0 0 0 2 8 A 6 6 0 0 0 8 14 A 6 6 0 0 0 14 8 A 6 6 0 0 0 8 2 z M 2 3 L 2 5 L 4 3 L 2 3 z M 8 3 A 5 5 0 0 1 10.390625 3.609375 L 8.8691406 5.1308594 A 3 3 0 0 0 8 5 A 3 3 0 0 0 7.1308594 5.1308594 L 5.6132812 3.6132812 A 5 5 0 0 1 8 3 z M 12 3 L 14 5 L 14 3 L 12 3 z M 3.609375 5.609375 L 5.1308594 7.1308594 A 3 3 0 0 0 5 8 A 3 3 0 0 0 5.1308594 8.8691406 L 3.6132812 10.386719 A 5 5 0 0 1 3 8 A 5 5 0 0 1 3.609375 5.609375 z M 12.386719 5.6132812 A 5 5 0 0 1 13 8 A 5 5 0 0 1 12.390625 10.390625 L 10.869141 8.8691406 A 3 3 0 0 0 11 8 A 3 3 0 0 0 10.869141 7.1308594 L 12.386719 5.6132812 z M 8 6 A 2 2 0 0 1 10 8 A 2 2 0 0 1 8 10 A 2 2 0 0 1 6 8 A 2 2 0 0 1 8 6 z M 7.1308594 10.869141 A 3 3 0 0 0 8 11 A 3 3 0 0 0 8.8691406 10.869141 L 10.386719 12.386719 A 5 5 0 0 1 8 13 A 5 5 0 0 1 5.609375 12.390625 L 7.1308594 10.869141 z M 2 11 L 2 13 L 4 13 L 2 11 z M 14 11 L 12 13 L 14 13 L 14 11 z "
     class="ColorScheme-Text"
     />
</svg>

<svg viewBox="0 0 16 16" xmlns="http://www.w3.org/2000/svg">
<defs>
<style type="text/css">.ColorScheme-Text {
        color:#000;
      }</style>
</defs>
<path class="ColorScheme-Text" d="m8 2a6 6 0 0 0-6 6 6 6 0 0 0 6 6 6 6 0 0 0 6-6 6 6 0 0 0-6-6zm-6 1v2l2-2h-2zm6 0a5 5 0 0 1 2.4 0.61l-1.5 1.5a3 3 0 0 0-0.87-0.13 3 3 0 0 0-0.87 0.13l-1.5-1.5a5 5 0 0 1 2.4-0.61zm4 0 2 2v-2h-2zm-8.4 2.6 1.5 1.5a3 3 0 0 0-0.13 0.87 3 3 0 0 0 0.13 0.87l-1.5 1.5a5 5 0 0 1-0.61-2.4 5 5 0 0 1 0.61-2.4zm8.8 0.0039a5 5 0 0 1 0.61 2.4 5 5 0 0 1-0.61 2.4l-1.5-1.5a3 3 0 0 0 0.13-0.87 3 3 0 0 0-0.13-0.87l1.5-1.5zm-4.4 0.39a2 2 0 0 1 2 2 2 2 0 0 1-2 2 2 2 0 0 1-2-2 2 2 0 0 1 2-2zm-0.87 4.9a3 3 0 0 0 0.87 0.13 3 3 0 0 0 0.87-0.13l1.5 1.5a5 5 0 0 1-2.4 0.61 5 5 0 0 1-2.4-0.61l1.5-1.5zm-5.1 0.13v2h2l-2-2zm12 0-2 2h2v-2z" fill="currentColor"/>
</svg>
